icons/circle/48/rapid-photo-downloader.svg

<svg xmlns="http://www.w3.org/2000/svg" viewBox="0 0 48 48">
 <defs>
  <linearGradient id="linearGradient3764" x1="1" x2="47" gradientUnits="userSpaceOnUse" gradientTransform="matrix(0,-1,1,0,-1.5e-6,47.999998)">
   <stop style="stop-color:#46baa7;stop-opacity:1"/>
   <stop offset="1" style="stop-color:#55bfae;stop-opacity:1"/>
  </linearGradient>
 </defs>
 <g>
  <path d="m 36.31 5 c 5.859 4.062 9.688 10.831 9.688 18.5 c 0 12.426 -10.07 22.5 -22.5 22.5 c -7.669 0 -14.438 -3.828 -18.5 -9.688 c 1.037 1.822 2.306 3.499 3.781 4.969 c 4.085 3.712 9.514 5.969 15.469 5.969 c 12.703 0 23 -10.298 23 -23 c 0 -5.954 -2.256 -11.384 -5.969 -15.469 c -1.469 -1.475 -3.147 -2.744 -4.969 -3.781 z m 4.969 3.781 c 3.854 4.113 6.219 9.637 6.219 15.719 c 0 12.703 -10.297 23 -23 23 c -6.081 0 -11.606 -2.364 -15.719 -6.219 c 4.16 4.144 9.883 6.719 16.219 6.719 c 12.703 0 23 -10.298 23 -23 c 0 -6.335 -2.575 -12.06 -6.719 -16.219 z" style="opacity:0.05"/>
  <path d="m 41.28 8.781 c 3.712 4.085 5.969 9.514 5.969 15.469 c 0 12.703 -10.297 23 -23 23 c -5.954 0 -11.384 -2.256 -15.469 -5.969 c 4.113 3.854 9.637 6.219 15.719 6.219 c 12.703 0 23 -10.298 23 -23 c 0 -6.081 -2.364 -11.606 -6.219 -15.719 z" style="opacity:0.1"/>
  <path d="m 31.25 2.375 c 8.615 3.154 14.75 11.417 14.75 21.13 c 0 12.426 -10.07 22.5 -22.5 22.5 c -9.708 0 -17.971 -6.135 -21.12 -14.75 a 23 23 0 0 0 44.875 -7 a 23 23 0 0 0 -16 -21.875 z" style="opacity:0.2"/>
 </g>
 <g>
  <path d="m 24 1 c 12.703 0 23 10.297 23 23 c 0 12.703 -10.297 23 -23 23 -12.703 0 -23 -10.297 -23 -23 0 -12.703 10.297 -23 23 -23 z" style="fill:url(#linearGradient3764);fill-opacity:1"/>
 </g>
 <g>
  <path d="m 40.03 7.531 c 3.712 4.084 5.969 9.514 5.969 15.469 0 12.703 -10.297 23 -23 23 c -5.954 0 -11.384 -2.256 -15.469 -5.969 4.178 4.291 10.01 6.969 16.469 6.969 c 12.703 0 23 -10.298 23 -23 0 -6.462 -2.677 -12.291 -6.969 -16.469 z" style="opacity:0.1"/>
 </g>
 <g transform="matrix(3.543307,0,0,3.543307,-0.00196934,0.00157573)">
  <rect width="0.282" height="0.847" x="9.313" y="5.08" rx="0.056" style="fill:#b3b3b3;fill-opacity:1"/>
  <path d="m 9.03,3.387 0.847,0.847 0,1.693 -0.169,0 0,0.564 0.169,0 0,3.951 c 0,0.282 -0.282,0.282 -0.282,0.282 l -5.08,0 c 0,0 -0.282,0 -0.282,-0.282 l 0,-3.104 0.169,0 0,-1.129 -0.113,0 C 4.258,6.209 4.233,6.184 4.233,6.153 l 0,-0.734 c 0,-0.031 0.025,-0.056 0.056,-0.056 l -0.056,0 0,-1.693 c 0,-0.282 0.282,-0.282 0.282,-0.282 l 4.516,0 z" style="fill:#000;fill-opacity:0.098"/>
  <g>
   <g transform="matrix(-1,0,0,1,13.546667,0)">
    <rect width="0.282" height="0.847" x="9.313" y="5.08" rx="0.056" style="fill:#9e5452;fill-opacity:1"/>
    <path d="m 9.426,5.08 0.169,0 0,-1.693 C 9.595,3.105 9.313,3.105 9.313,3.105 l -4.516,0 -0.847,0.847 0,1.693 0.169,0 0,0.564 -0.169,0 0,3.951 c 0,0.282 0.282,0.282 0.282,0.282 l 5.08,0 c 0,0 0.282,0 0.282,-0.282 l 0,-3.104 -0.169,0 z" style="fill:#084150;fill-opacity:1;stroke:none"/>
   </g>
   <rect width="3.951" height="5.644" x="4.798" y="4.233" rx="0.006" style="fill:#9e5452;fill-opacity:1;stroke:none"/>
   <path d="m 7.338 8.184 -0.564 0 0 0.282 0.282 0 c 0 0 0.282 0 0.282 0.282 l 0 0.564 c 0 0 0 0.282 -0.282 0.282 l -0.564 0 0 -0.282 0.564 0 0 -0.564 -0.282 0 c 0 0 -0.282 0 -0.282 -0.261 l 0 -0.349 c 0 -0.236 0.282 -0.236 0.282 -0.236 l 0.564 0 z" style="fill:#ececec;fill-opacity:1;stroke:none"/>
   <path d="m 7.62 8.326 0.282 0 0 0.988 0.282 0 0 -1.129 -0.564 0 0 -0.282 0.564 0 c 0.232 0 0.282 0.145 0.282 0.282 l 0 1.129 c 0 0.282 -0.282 0.282 -0.282 0.282 l -0.564 0 z" style="fill:#ececec;fill-opacity:1;stroke:none"/>
  </g>
 </g>
</svg>

<svg xmlns="http://www.w3.org/2000/svg" viewBox="0 0 48 48">
  <defs>
    <linearGradient id="a" x1="1" x2="47" gradientUnits="userSpaceOnUse" gradientTransform="rotate(-90 24 24)">
      <stop stop-color="#46baa7"/>
      <stop offset="1" stop-color="#55bfae"/>
    </linearGradient>
  </defs>
  <path d="M36.31 5c5.859 4.062 9.688 10.831 9.688 18.5 0 12.426-10.07 22.5-22.5 22.5-7.669 0-14.438-3.828-18.5-9.688a23.24 23.24 0 0 0 3.781 4.969 22.923 22.923 0 0 0 15.469 5.969c12.703 0 23-10.298 23-23a22.92 22.92 0 0 0-5.969-15.469A23.216 23.216 0 0 0 36.31 5zm4.969 3.781A22.911 22.911 0 0 1 47.498 24.5c0 12.703-10.297 23-23 23a22.909 22.909 0 0 1-15.719-6.219C12.939 45.425 18.662 48 24.998 48c12.703 0 23-10.298 23-23 0-6.335-2.575-12.06-6.719-16.219z" opacity=".05"/>
  <path d="M41.28 8.781a22.923 22.923 0 0 1 5.969 15.469c0 12.703-10.297 23-23 23A22.92 22.92 0 0 1 8.78 41.281 22.911 22.911 0 0 0 24.499 47.5c12.703 0 23-10.298 23-23A22.909 22.909 0 0 0 41.28 8.781z" opacity=".1"/>
  <path d="M31.25 2.375C39.865 5.529 46 13.792 46 23.505c0 12.426-10.07 22.5-22.5 22.5-9.708 0-17.971-6.135-21.12-14.75a23 23 0 0 0 44.875-7 23 23 0 0 0-16-21.875z" opacity=".2"/>
  <path d="M24 1c12.703 0 23 10.297 23 23S36.703 47 24 47 1 36.703 1 24 11.297 1 24 1z" fill="url(#a)"/>
  <g>
    <path d="M40.03 7.531A22.922 22.922 0 0 1 45.999 23c0 12.703-10.297 23-23 23A22.92 22.92 0 0 1 7.53 40.031C11.708 44.322 17.54 47 23.999 47c12.703 0 23-10.298 23-23 0-6.462-2.677-12.291-6.969-16.469z" opacity=".1"/>
  </g>
  <g transform="matrix(3.5433 0 0 3.5433 -.002 .002)">
    <rect width=".282" height=".847" x="9.313" y="5.08" rx=".056" fill="#b3b3b3"/>
    <path d="M9.03 3.387l.847.847v1.693h-.169v.564h.169v3.951c0 .282-.282.282-.282.282h-5.08s-.282 0-.282-.282V7.338h.169V6.209h-.113a.056.056 0 0 1-.056-.056v-.734c0-.031.025-.056.056-.056h-.056V3.67c0-.282.282-.282.282-.282h4.516z" fill-opacity=".098"/>
    <g transform="matrix(-1 0 0 1 13.547 0)">
      <rect width=".282" height=".847" x="9.313" y="5.08" rx=".056" fill="#9e5452"/>
      <path d="M9.426 5.08h.169V3.387c0-.282-.282-.282-.282-.282H4.797l-.847.847v1.693h.169v.564H3.95v3.951c0 .282.282.282.282.282h5.08s.282 0 .282-.282V7.056h-.169z" fill="#084150"/>
    </g>
    <rect width="3.951" height="5.644" x="4.798" y="4.233" rx=".006" fill="#9e5452"/>
    <path d="M7.338 8.184h-.564v.282h.282s.282 0 .282.282v.564s0 .282-.282.282h-.564v-.282h.564v-.564h-.282s-.282 0-.282-.261v-.349c0-.236.282-.236.282-.236h.564zM7.62 8.326h.282v.988h.282V8.185H7.62v-.282h.564c.232 0 .282.145.282.282v1.129c0 .282-.282.282-.282.282H7.62z" fill="#ececec"/>
  </g>
</svg>
